!!!COM: Palestrina, Giovanni Perluigi da
!!!OPR: Missa Io mi son giovinetta (1570)
!!!OTL: Agnus II
**kern	**kern	**kern	**kern	**kern	**kern
*Ibass	*Itenor	*Itenor	*Icalto	*Icalto	*Icant
!Bassus	!Tenor 2	!Tenor 1	!Altus 2	!Altus 1	!Cantus
*clefF4	*clefGv2	*clefGv2	*clefG2	*clefG2	*clefG2
*k[b-]	*k[b-]	*k[b-]	*k[b-]	*k[b-]	*k[b-]
*G:dor	*G:dor	*G:dor	*G:dor	*G:dor	*G:dor
*M4/2	*M4/2	*M4/2	*M4/2	*M4/2	*M4/2
=1	=1	=1	=1	=1	=1
0r	0r	1G	0r	1r	1dd
.	.	2G	.	1g	2dd
.	.	2G	.	.	2dd
=2	=2	=2	=2	=2	=2
0r	0r	2.c	0r	2g	2.ee
.	.	.	.	2g	.
.	.	4B-	.	.	4dd
.	.	2A	.	2.a	2cc
.	.	[2d	.	.	[2ff
.	.	.	.	4g	.
=3	=3	=3	=3	=3	=3
0r	0r	2d]	0r	2f	2ff]
.	.	2c	.	2g	2.ee
.	.	2d	.	2f	.
.	.	.	.	.	4dd
.	.	2G	.	2g	[2dd
=4	=4	=4	=4	=4	=4
1r	1r	1A	0r	2e	2dd]
.	.	.	.	2a	2cc#
1G	1d	1d	.	2b-	1dd
.	.	.	.	2g	.
=5	=5	=5	=5	=5	=5
2G	2d	1r	1g	1b-	0r
2G	2d	.	.	.	.
2.c	2.e	2r	2g	[1cc	.
.	.	2c	2g	.	.
4B-	4d	.	.	.	.
=6	=6	=6	=6	=6	=6
4A	2c	2c	2.a	1cc]	0r
4G	.	.	.	.	.
4F	1f	2c	.	.	.
4E	.	.	4g	.	.
2D	.	4d	2f	1r	.
.	.	4c	.	.	.
[2G	[2e	4B-	[2b-	.	.
.	.	4A	.	.	.
=7	=7	=7	=7	=7	=7
2G]	4e]	2G	2b-]	0r	0r
.	4d	.	.	.	.
2F	1d	2A	2.a	.	.
2G	.	2B-	.	.	.
.	.	.	4g	.	.
2E	2c#	2G	[2g	.	.
=8	=8	=8	=8	=8	=8
1D	1d	1A	2g]	1a	0r
.	.	.	2f#	.	.
1G	1r	4G	1g	2b-	.
.	.	4A	.	.	.
.	.	4B-	.	[2g	.
.	.	4c	.	.	.
=9	=9	=9	=9	=9	=9
2r	0r	1d	0r	2g]	1a
2D	.	.	.	4f	.
.	.	.	.	4e	.
2D	.	2r	.	1f	2a
2D	.	2d	.	.	2a
=10	=10	=10	=10	=10	=10
1G	0r	2d	0r	1.g	2.b-
.	.	2d	.	.	.
.	.	.	.	.	4a
2C	.	2.e	.	.	2g
2c	.	.	.	2g	[2cc
.	.	4d	.	.	.
=11	=11	=11	=11	=11	=11
2A	0r	2c	0r	4a	2cc]
.	.	.	.	4g	.
2.d	.	1f	.	4f	2.b-
.	.	.	.	4e	.
.	.	.	.	2d	.
4c	.	.	.	.	4a
2A	.	[2e	.	2c#	[2a
=12	=12	=12	=12	=12	=12
1B-	1r	4e]	0r	1d	2a]
.	.	4d	.	.	.
.	.	1d	.	.	2g
1A	1A	.	.	1e	2a
.	.	2c#	.	.	2ee
=13	=13	=13	=13	=13	=13
1D	2A	1d	1d	2d	4ff
.	.	.	.	.	4ee
.	2A	.	.	2a	4dd
.	.	.	.	.	4cc
1G	2.B-	2r	2d	[1g	1dd
.	.	2G	2d	.	.
.	4A	.	.	.	.
=14	=14	=14	=14	=14	=14
1C	2G	2G	2.e	1g]	2.cc
.	1c	2G	.	.	.
.	.	.	4d	.	4b-
2F	.	2A	2c	2.f	2a
[2D	[2B-	[2F	[2f	.	[2dd
.	.	.	.	4g	.
=15	=15	=15	=15	=15	=15
4D]	4B-]	4F]	2f]	1a	2dd]
4C	4A	4G	.	.	.
2AA	1A	2A	2.e	.	2cc#
1BB-	.	2F	.	1d	1dd
.	.	.	4d	.	.
.	2G	2D	[2d	.	.
=16	=16	=16	=16	=16	=16
1AA	2A	1E	2d]	2r	0r
.	2e	.	2c#	1a	.
1D	4f	1D	2d	.	.
.	4e	.	.	.	.
.	4d	.	2a	2f	.
.	4c	.	.	.	.
=17	=17	=17	=17	=17	=17
1r	1d	1.G	4b-	2g	0r
.	.	.	4a	.	.
.	.	.	4g	2d	.
.	.	.	4f	.	.
1C	2.c	.	1g	1e	.
.	.	2E	.	.	.
.	4B-	.	.	.	.
=18	=18	=18	=18	=18	=18
1D	2A	1F	2.f	1d	0r
.	1d	.	.	.	.
.	.	.	4e	.	.
2BB-	.	1G	2d	1r	.
2E-	2c	.	[2g	.	.
=19	=19	=19	=19	=19	=19
1D	1d	1A	2g]	1r	1a
.	.	.	2f#	.	.
1G	1r	2G	1g	1d	1b-
.	.	2B-	.	.	.
=20	=20	=20	=20	=20	=20
1C	0r	1c	0r	1e	1g
1r	.	2F	.	1c	1a
.	.	2A	.	.	.
=21	=21	=21	=21	=21	=21
1G	0r	2G	0r	2d	1b
.	.	2g	.	1e	.
1A	.	2e	.	.	[1cc
.	.	[2a	.	[2f	.
=22	=22	=22	=22	=22	=22
1F	1r	4a]	0r	4f]	1cc]
.	.	4g	.	4e	.
.	.	4f	.	2c	.
.	.	4e	.	.	.
1F	1A	2.f	.	2d	1a
.	.	.	.	2c	.
.	.	4e	.	.	.
=23	=23	=23	=23	=23	=23
1G	1B-	2d	1d	2r	1g
.	.	4g	.	1g	.
.	.	4f	.	.	.
1C	1G	4e	1e	.	1r
.	.	4d	.	.	.
.	.	4c	.	[2cc	.
.	.	4B-	.	.	.
=24	=24	=24	=24	=24	=24
1F	1A	4A	1c	4cc]	0r
.	.	4G	.	4b-	.
.	.	4F	.	4a	.
.	.	4E	.	4g	.
1D	1B	1F	1d	2f	.
.	.	.	.	2d	.
=25	=25	=25	=25	=25	=25
1C	0c	1G	1e	1g	0r
2.F	.	[1F	[1f	2.a	.
4G	.	.	.	4b-	.
=26	=26	=26	=26	=26	=26
4A	1A	1F]	1f]	2cc	1r
4B-	.	.	.	.	.
1c	.	.	.	2c	.
.	1G	1r	1d	[1g	1dd
2B	.	.	.	.	.
=27	=27	=27	=27	=27	=27
1c	0r	2r	1c	1g]	1ee
.	.	1c	.	.	.
1F	.	.	1r	2r	1cc
.	.	[2f	.	2a	.
=28	=28	=28	=28	=28	=28
1B-	0r	2f]	0r	1b-	1dd
.	.	1g	.	.	.
1c	.	.	.	1g	1ee
.	.	[2c	.	.	.
=29	=29	=29	=29	=29	=29
1F	0r	2c]	0r	1a	0ff
.	.	2.d	.	.	.
[1B-	.	.	.	[1b-	.
.	.	4c	.	.	.
.	.	4d	.	.	.
.	.	4e	.	.	.
=30	=30	=30	=30	=30	=30
1B-]	1d	4f	1r	2b-]	1dd
.	.	4g	.	.	.
.	.	1f	.	2a	.
1c	1e	.	1g	1g	1cc
.	.	2e	.	.	.
=31	=31	=31	=31	=31	=31
1F	1c	2f	1a	2f	0r
.	.	2F	.	2cc	.
1r	1d	2B-	1f	2b-	.
.	.	2d	.	2a	.
=32	=32	=32	=32	=32	=32
1C	1e	0c	1g	2.cc	0r
.	.	.	.	4b-	.
1F	[1f	.	1a	4a	.
.	.	.	.	4g	.
.	.	.	.	4f	.
.	.	.	.	4e	.
=33	=33	=33	=33	=33	=33
1BB-	1f]	1B-	0b-	4d	0r
.	.	.	.	4c	.
.	.	.	.	4B-	.
.	.	.	.	4c	.
1BB-	1d	1F	.	4d	.
.	.	.	.	4e	.
.	.	.	.	[2f	.
=34	=34	=34	=34	=34	=34
1C	1c	1r	1g	2f]	1r
.	.	.	.	2e	.
2F	1r	2r	1f	[1f	2r
2BB-	.	2B-	.	.	2dd
=35	=35	=35	=35	=35	=35
2.BB-	0r	2.B-	0r	1f]	2.dd
4BB-	.	4B-	.	.	4dd
2F	.	2A	.	2r	2cc
2BB-	.	2d	.	[2f	2b-
=36	=36	=36	=36	=36	=36
2C	0r	2c	0r	2f]	2a
2C	.	2c	.	2e	2g
1D	.	2A	.	1d	2f
.	.	2f	.	.	2f
=37	=37	=37	=37	=37	=37
2r	0r	2e-	0r	2c	2g
2BB-	.	2d	.	2f	2b-
2C	.	4c	.	2e-	2a
.	.	4B-	.	.	.
2E-	.	4A	.	2c	[2g
.	.	4G	.	.	.
=38	=38	=38	=38	=38	=38
1D	2r	1A	1r	1d	4g]
.	.	.	.	.	4f#
.	2d	.	.	.	2f#
1G	2.d	[1G	2r	1B-	1g
.	.	.	2g	.	.
.	4d	.	.	.	.
=39	=39	=39	=39	=39	=39
2C	2c	1G]	2.g	2e-	0r
2G	2B-	.	.	2d	.
.	.	.	4g	.	.
2A	2A	1r	2f	2c	.
[2B-	2G	.	2e-	2B-	.
=40	=40	=40	=40	=40	=40
2B-]	2F	0r	2d	1f	0r
2A	2F	.	2c	.	.
1B-	2G	.	2B-	2r	.
.	2B-	.	2B-	[2f	.
=41	=41	=41	=41	=41	=41
0r	2A	2r	2c	2f]	0r
.	2.G	1B-	2e-	2g	.
.	.	.	2d	2b-	.
.	4F#	.	.	.	.
.	2F#	2c	[2c	[2a	.
=42	=42	=42	=42	=42	=42
2r	1G	2e-	4c]	4a]	1r
.	.	.	4B	4g	.
2G	.	2.d	2B	1g	.
2E	1r	.	1c	.	2r
.	.	4c	.	.	.
2F	.	[2c	.	2a	2cc
=43	=43	=43	=43	=43	=43
1D	0r	2c]	0r	2.f	2dd
.	.	2B	.	.	1ff
.	.	.	.	4g	.
1C	.	1c	.	2a	.
.	.	.	.	[2g	[2ee
=44	=44	=44	=44	=44	=44
1D	0r	2A	0r	4g]	4ee]
.	.	.	.	4f	4dd
.	.	2.a	.	2f	1dd
1A	.	.	.	1e	.
.	.	4g	.	.	.
.	.	2e	.	.	2cc#
=45	=45	=45	=45	=45	=45
1D	0r	4f	0r	2d	0dd
.	.	4e	.	.	.
.	.	4d	.	2f	.
.	.	4c	.	.	.
1G	.	4B-	.	2g	.
.	.	4c	.	.	.
.	.	2d	.	2b-	.
=46	=46	=46	=46	=46	=46
2A	2r	1c	1r	2a	2r
2c	2c	.	.	2g	1g
2B-	2d	1r	2r	2b-	.
2A	[2f	.	2f	2cc	2a
=47	=47	=47	=47	=47	=47
1.G	2f]	2r	2g	2.b-	2b-
.	2.e	1G	1b-	.	2g
.	.	.	.	4a	.
.	.	.	.	2g	1dd
.	4d	.	.	.	.
2F	[2d	2A	[2a	2d	.
=48	=48	=48	=48	=48	=48
1E-	2d]	2B-	4a]	1r	1g
.	.	.	4g	.	.
.	2c	2G	1g	.	.
1D	[1d	1A	.	1a	2r
.	.	.	2f#	.	[2dd
=49	=49	=49	=49	=49	=49
1G	1d]	1G	[0g	2b-	2dd]
.	.	.	.	2.g	2dd
1G	2r	1B-	.	.	1dd
.	.	.	.	4f	.
.	[2G	.	.	2d	.
=50	=50	=50	=50	=50	=50
1C	2G]	1c	1g_	1e-	1cc
.	2A	.	.	.	.
2.G	2B-	1d	1g_	[1d	4b-
.	.	.	.	.	4g
.	2G	.	.	.	[2gg
4A	.	.	.	.	.
=51	=51	=51	=51	=51	=51
1B-	1d	2.G	0g]	2d]	4gg]
.	.	.	.	.	4ff
.	.	.	.	2.b-	2dd
.	.	4A	.	.	.
2.E-	[1G	[1B-	.	.	2.ee-
.	.	.	.	4a	.
.	.	.	.	[2g	.
4F	.	.	.	.	4dd
=52	=52	=52	=52	=52	=52
1G	0G]	1B-]	[0g	4g]	2b-
.	.	.	.	4f	.
.	.	.	.	2d	2dd
1C	.	1c	.	1e-	1cc
=53	=53	=53	=53	=53	=53
0G	0G	0B	0g]	0d	0dd
==	==	==	==	==	==
*-	*-	*-	*-	*-	*-
!!!CDT: 1525/^1526/-1594/2/2
!!!OCY: Italia
!!!AGN: Mass (Parody)
!!!AST: renaissance, vocal
!!!ASW: Madrigal 1542 (Ferabosco)
!!!PWK: Masses, Book 3
!!!RNB: Cadence finals: A
!!!YOR: Le Opere Complete, v. 6, p. 30
!!!YOO: Rome, Italy: Fratelli Scalera
!!!END: 1992//
!!!EED: John Miller
!!!YEC: Copyright 2000, John Miller
!!!YEN: United States of America
!!!YEM: Rights to all derivative electronic formats reserved.
!!!YEM: Refer to licensing agreement for further details.
!!!YEM: This file must be accompanied by the licensing agreement.
!!!YEM: A copy of the licensing agreement may be found at http://www.music-cog.ohio-state.edu/HumdrumDatabases/Palestrina/license.txt
!!!EMD: converted to Humdrum by Bret Aarden
